src/assets/images/logos/In-N-Out_logo.svg

<?xml version="1.0" encoding="UTF-8" standalone="no"?>
<!-- Created with Inkscape (http://www.inkscape.org/) -->
<svg
   xmlns:dc="http://purl.org/dc/elements/1.1/"
   xmlns:cc="http://creativecommons.org/ns#"
   xmlns:rdf="http://www.w3.org/1999/02/22-rdf-syntax-ns#"
   xmlns:svg="http://www.w3.org/2000/svg"
   xmlns="http://www.w3.org/2000/svg"
   xmlns:sodipodi="http://sodipodi.sourceforge.net/DTD/sodipodi-0.dtd"
   xmlns:inkscape="http://www.inkscape.org/namespaces/inkscape"
   id="svg2648"
   sodipodi:version="0.32"
   inkscape:version="0.46"
   width="150"
   height="82"
   version="1.0"
   sodipodi:docname="InNOut.svg"
   inkscape:output_extension="org.inkscape.output.svg.inkscape">
  <metadata
     id="metadata2653">
    <rdf:RDF>
      <cc:Work
         rdf:about="">
        <dc:format>image/svg+xml</dc:format>
        <dc:type
           rdf:resource="http://purl.org/dc/dcmitype/StillImage" />
      </cc:Work>
    </rdf:RDF>
  </metadata>
  <defs
     id="defs2651">
    <inkscape:perspective
       sodipodi:type="inkscape:persp3d"
       inkscape:vp_x="0 : 526.18109 : 1"
       inkscape:vp_y="0 : 1000 : 0"
       inkscape:vp_z="744.09448 : 526.18109 : 1"
       inkscape:persp3d-origin="372.04724 : 350.78739 : 1"
       id="perspective2655" />
  </defs>
  <sodipodi:namedview
     inkscape:window-height="968"
     inkscape:window-width="1280"
     inkscape:pageshadow="2"
     inkscape:pageopacity="0.0"
     guidetolerance="10.0"
     gridtolerance="10.0"
     objecttolerance="10.0"
     borderopacity="1.0"
     bordercolor="#666666"
     pagecolor="#ffffff"
     id="base"
     showgrid="false"
     inkscape:zoom="4"
     inkscape:cx="106.10142"
     inkscape:cy="19.242973"
     inkscape:window-x="-4"
     inkscape:window-y="-4"
     inkscape:current-layer="svg2648" />
  <path
     style="fill:#ffef00;fill-rule:evenodd;stroke:#db001d;stroke-width:1px;stroke-linecap:butt;stroke-linejoin:miter;stroke-opacity:1;fill-opacity:1;opacity:1"
     d="M 41.334551,38.716 L 22.334559,13.962316 C 22.334559,13.962316 21.438419,12.790441 21.438419,11.067096 C 21.438419,9.3437499 23.230699,6.5174632 26.815257,6.5174632 C 27.745864,6.5174632 31.433824,7.4136029 31.433824,7.4136029 C 31.433824,7.4136029 118.63511,24.371323 118.63511,24.371323 C 118.63511,24.371323 118.63511,18.504087 118.63511,18.504087 L 118.81251,18.504087 L 127,28.09375 L 117.82399,35.491063 L 117.36012,35.350438 L 117.31857,30.532391 L 53.520444,23.020275 C 53.520444,23.020275 49.401612,22.167263 49.401612,23.946403 C 49.401612,25.725544 57.042739,38.716 57.042739,38.716 C 57.042739,38.716 41.334551,38.716 41.334551,38.716 z"
     id="path2663"
     sodipodi:nodetypes="ccsscscccccccsss" />
  <path
     style="fill:#ffef00;fill-rule:evenodd;stroke:#db001d;stroke-width:1px;stroke-linecap:butt;stroke-linejoin:miter;stroke-opacity:1;fill-opacity:1"
     d="M 61.592371,64.491 L 68.520221,73.693474 L 77.688419,73.693474 L 72.346,64.491 L 61.592371,64.491 z"
     id="path3437"
     sodipodi:nodetypes="ccccc" />
  <path
     style="fill:#c6001d;fill-opacity:1;fill-rule:evenodd;stroke:none;stroke-width:1px;stroke-linecap:butt;stroke-linejoin:miter;stroke-opacity:1"
     d="M 7.9790901,61.956724 L 7.9790901,41.554898 L 13.353553,41.554898 L 13.353553,61.992187 L 7.9790901,61.956724 z"
     id="path3439" />
  <path
     style="fill:#c6001d;fill-rule:evenodd;stroke:none;stroke-width:1px;stroke-linecap:butt;stroke-linejoin:miter;stroke-opacity:1;fill-opacity:1;opacity:1"
     d="M 16.99266,62.002 L 16.99266,41.5625 L 22.959,41.562 L 32.328,52.478 L 32.328038,41.562331 L 37.498756,41.562331 L 37.498756,62.002 L 32.328,62.002 L 22.959,51.461826 L 22.958873,62.002 L 16.99266,62.002 z"
     id="path3441"
     sodipodi:nodetypes="ccccccccccc" />
  <path
     sodipodi:nodetypes="ccccccccccc"
     id="path3445"
     d="M 50.02575,62.002 L 50.02575,41.5625 L 55.99209,41.562 L 65.36109,52.478 L 65.361128,41.562331 L 70.531846,41.562331 L 70.531846,62.002 L 65.36109,62.002 L 55.99209,51.461826 L 55.991963,62.002 L 50.02575,62.002 z"
     style="opacity:1;fill:#c6001d;fill-opacity:1;fill-rule:evenodd;stroke:none;stroke-width:1px;stroke-linecap:butt;stroke-linejoin:miter;stroke-opacity:1" />
  <path
     id="path3447"
     d="M 40.947943,53.982655 L 40.947943,48.007247 L 47.05161,48.007247 L 47.05161,53.993042 L 40.947943,53.982655 z"
     style="fill:#c6001d;fill-opacity:1;fill-rule:evenodd;stroke:none;stroke-width:1px;stroke-linecap:butt;stroke-linejoin:miter;stroke-opacity:1" />
  <path
     style="fill:#c6001d;fill-opacity:1;fill-rule:evenodd;stroke:none;stroke-width:1px;stroke-linecap:butt;stroke-linejoin:miter;stroke-opacity:1"
     d="M 74.579709,53.982655 L 74.579709,48.007247 L 80.683376,48.007247 L 80.683376,53.993042 L 74.579709,53.982655 z"
     id="path3451" />
  <path
     style="opacity:1;fill:#c6001d;fill-opacity:1;fill-rule:nonzero;stroke:none;stroke-width:1;stroke-linecap:square;stroke-linejoin:bevel;stroke-miterlimit:4;stroke-dasharray:none;stroke-dashoffset:0;stroke-opacity:1"
     d="M 94.59476,62.577248 C 94.5346,62.570539 94.33773,62.549436 94.15726,62.530352 C 92.34618,62.338835 90.47501,61.623051 88.98538,60.551943 C 88.09508,59.911774 87.08334,58.907126 86.46417,58.048393 C 85.37604,56.539274 84.70121,54.822851 84.44921,52.923393 C 84.3803,52.403987 84.37104,50.904695 84.43357,50.392143 C 84.60277,49.005366 84.96199,47.815524 85.5794,46.596852 C 86.87062,44.048152 89.15711,42.072841 91.86038,41.170655 C 92.62127,40.916716 93.25922,40.770706 94.12601,40.652108 C 94.52709,40.597231 96.22492,40.59723 96.62601,40.652108 C 98.03286,40.8446 99.16548,41.182604 100.2833,41.743538 C 103.31259,43.263664 105.48919,46.09109 106.15542,49.371475 C 106.33248,50.243286 106.35784,50.521903 106.35784,51.595268 C 106.35784,52.646039 106.33284,52.934003 106.17064,53.751518 C 105.40902,57.590274 102.59854,60.782748 98.89163,62.019882 C 98.12623,62.275324 97.61037,62.394509 96.7307,62.519146 C 96.41019,62.564557 94.85927,62.606745 94.59476,62.577248 L 94.59476,62.577248 z M 96.21976,56.674118 C 98.31135,56.34217 100.01019,54.794562 100.53433,52.743644 C 100.65255,52.281058 100.6934,51.941894 100.69336,51.423393 C 100.69327,50.381329 100.43721,49.474673 99.89905,48.610893 C 99.07553,47.289113 97.71148,46.393301 96.15726,46.153544 C 95.82086,46.101651 94.93788,46.101934 94.61038,46.154039 C 93.87511,46.271021 93.17263,46.5265 92.5952,46.886922 C 91.01094,47.875806 90.06351,49.575696 90.06351,51.429311 C 90.06351,54.212662 92.21217,56.512893 95.01663,56.731821 C 95.26896,56.751519 95.93262,56.71969 96.21976,56.674119 L 96.21976,56.674118 z"
     id="path3461" />
  <path
     style="fill:#c6001d;fill-rule:evenodd;stroke:none;stroke-width:1px;stroke-linecap:butt;stroke-linejoin:miter;stroke-opacity:1;fill-opacity:1"
     d="M 134.54916,62.499321 L 140.53125,62.499321 L 140.53125,46.484 L 145,46.484375 L 145,41.53125 L 130,41.53125 L 130,46.484 L 134.48437,46.484 L 134.54916,62.499321 z"
     id="path3465"
     sodipodi:nodetypes="ccccccccc" />
  <text
     xml:space="preserve"
     style="font-size:10px;font-style:normal;font-variant:normal;font-weight:bold;font-stretch:normal;text-align:start;line-height:125%;writing-mode:lr-tb;text-anchor:start;fill:#c6001d;fill-opacity:1;stroke:none;stroke-width:1px;stroke-linecap:butt;stroke-linejoin:miter;stroke-opacity:1;font-family:Arial;-inkscape-font-specification:Arial Bold"
     x="53.90625"
     y="74.5625"
     id="text3473"
     sodipodi:linespacing="125%"><tspan
       sodipodi:role="line"
       id="tspan3475"
       x="53.90625"
       y="74.5625">®</tspan></text>
  <path
     style="opacity:1;fill:#c6001d;fill-opacity:1;fill-rule:nonzero;stroke:none;stroke-width:1;stroke-linecap:square;stroke-linejoin:miter;stroke-miterlimit:4;stroke-dasharray:none;stroke-dashoffset:0;stroke-opacity:1"
     d="M 85.569514,69.4128 L 85.569514,64.882093 L 87.839989,64.882274 C 90.165566,64.88246 90.34026,64.887931 90.694417,64.971673 C 91.756793,65.222873 92.413779,66.312434 92.23162,67.521003 C 92.122898,68.242345 91.742683,68.778652 91.142894,69.056695 C 91.079424,69.086118 91.027494,69.116619 91.027494,69.124476 C 91.027494,69.132332 91.08467,69.156572 91.154552,69.178342 C 91.903169,69.411558 92.386528,69.950797 92.554919,70.740601 C 92.619303,71.042581 92.625559,71.642457 92.567377,71.93509 C 92.412822,72.712444 91.970335,73.350892 91.398307,73.621903 C 91.184065,73.723405 90.971345,73.776273 90.441921,73.859596 L 89.99998,73.929152 L 87.784747,73.936328 L 85.569514,73.943505 L 85.569514,69.4128 z M 89.593012,71.970838 C 89.881868,71.895314 90.058557,71.758329 90.167287,71.52561 C 90.385716,71.058098 90.235794,70.474914 89.848462,70.28541 C 89.630602,70.178822 89.489226,70.164097 88.679679,70.16368 L 87.933902,70.163297 L 87.933902,71.093522 L 87.933902,72.023746 L 88.701776,72.013419 C 89.275989,72.005698 89.500762,71.994958 89.593013,71.970838 L 89.593012,71.970838 z M 89.4494,68.389134 C 89.679101,68.312807 89.815025,68.183084 89.904531,67.954768 C 89.969672,67.788607 89.975855,67.381474 89.915852,67.209407 C 89.829135,66.960732 89.658231,66.811286 89.391081,66.750524 C 89.272746,66.72361 89.098259,66.716151 88.586928,66.716151 L 87.933902,66.716151 L 87.933902,67.57934 L 87.933902,68.442531 L 88.635484,68.434497 C 89.219711,68.427806 89.355857,68.420218 89.449401,68.389135 L 89.4494,68.389134 z"
     id="path3487" />
  <path
     style="opacity:1;fill:#c6001d;fill-opacity:1;fill-rule:nonzero;stroke:none;stroke-width:1;stroke-linecap:square;stroke-linejoin:miter;stroke-miterlimit:4;stroke-dasharray:none;stroke-dashoffset:0;stroke-opacity:1"
     d="M 98.789982,73.930586 C 97.370162,73.827481 96.768871,73.602717 96.13041,72.936431 C 95.638008,72.422569 95.417087,71.986038 95.243789,71.184499 C 95.12067,70.615052 95.121865,70.650398 95.121865,67.577598 L 95.121865,64.739254 L 96.425052,64.739254 L 97.728241,64.739254 L 97.734614,67.705788 L 97.740986,70.672322 L 97.791905,70.837688 C 97.948655,71.346762 98.26883,71.669867 98.747671,71.802206 C 98.944993,71.856741 99.429745,71.857251 99.629671,71.803135 C 100.11811,71.670925 100.42769,71.363981 100.58459,70.85636 L 100.63464,70.694419 L 100.64085,67.716836 L 100.64706,64.739254 L 101.95033,64.739254 L 103.25359,64.739254 L 103.25359,67.612746 C 103.25359,69.490157 103.24546,70.56062 103.23014,70.700814 C 103.10949,71.804334 102.62793,72.705082 101.83627,73.308029 C 101.44309,73.607478 100.88958,73.810138 100.22629,73.897497 C 99.892722,73.941429 99.168932,73.958104 98.789982,73.930585 L 98.789982,73.930586 z"
     id="path3491" />
  <path
     style="opacity:1;fill:#c6001d;fill-opacity:1;fill-rule:nonzero;stroke:none;stroke-width:1;stroke-linecap:square;stroke-linejoin:miter;stroke-miterlimit:4;stroke-dasharray:none;stroke-dashoffset:0;stroke-opacity:1"
     d="M 106.20306,69.412534 L 106.20306,64.881396 L 108.63927,64.889863 C 110.79325,64.89735 111.10491,64.902701 111.32959,64.936053 C 112.12013,65.053405 112.52231,65.251738 112.88244,65.701846 C 113.13844,66.021808 113.29843,66.394736 113.37426,66.848247 C 113.43254,67.196736 113.41102,67.837475 113.33041,68.154236 C 113.21324,68.614645 112.91842,69.108274 112.59528,69.385111 C 112.32998,69.612388 111.99618,69.790949 111.6666,69.881888 C 111.56632,69.909558 111.48427,69.939847 111.48427,69.949197 C 111.48427,69.958547 111.49712,69.966197 111.51283,69.966197 C 111.52855,69.966197 111.66087,70.0251 111.80688,70.097093 C 112.03534,70.209742 112.0922,70.249064 112.21473,70.379173 C 112.3594,70.532803 112.60401,70.863796 112.75053,71.104197 C 112.79497,71.177117 113.10886,71.845904 113.44807,72.59039 L 114.0648,73.944 L 112.67227,73.938313 L 111.27974,73.932624 L 110.56772,72.44107 C 110.17611,71.620716 109.81196,70.876615 109.75849,70.787513 C 109.70503,70.698411 109.6196,70.582013 109.56867,70.528852 C 109.39425,70.346823 109.10457,70.243141 108.81052,70.257496 L 108.66689,70.264507 L 108.66124,72.10409 L 108.65559,73.943672 L 107.42932,73.943672 L 106.20306,73.943672 L 106.20306,69.412534 z M 110.24941,68.470035 C 110.54234,68.392198 110.65485,68.327901 110.76812,68.173592 C 111.07761,67.751989 110.96602,67.047136 110.55698,66.839857 C 110.32507,66.722344 110.24697,66.712829 109.42371,66.701811 L 108.65584,66.691534 L 108.65584,67.623464 L 108.65584,68.555397 L 109.32428,68.546819 C 109.98815,68.538301 109.99446,68.537777 110.24941,68.470034 L 110.24941,68.470035 z"
     id="path3493" />
  <path
     style="opacity:1;fill:#c6001d;fill-opacity:1;fill-rule:nonzero;stroke:none;stroke-width:1;stroke-linecap:square;stroke-linejoin:miter;stroke-miterlimit:4;stroke-dasharray:none;stroke-dashoffset:0;stroke-opacity:1"
     d="M 120.06177,73.931197 C 119.33295,73.871163 118.74479,73.722371 118.24704,73.472109 C 117.06501,72.877796 116.29691,71.63483 116.10667,70.008474 C 116.06262,69.631915 116.06319,68.903827 116.10783,68.518198 C 116.29287,66.919985 117.02782,65.745431 118.26086,65.077387 C 118.87322,64.745614 119.69722,64.584526 120.77882,64.585135 C 121.69117,64.585649 122.44577,64.687222 122.91363,64.87249 C 123.59615,65.142769 124.14607,65.670893 124.4789,66.375736 C 124.57408,66.577298 124.77198,67.121183 124.75476,67.133874 C 124.75013,67.137283 124.19448,67.24214 123.51996,67.366888 C 122.84545,67.491636 122.27059,67.599099 122.2425,67.605695 C 122.20228,67.615142 122.18852,67.606571 122.17774,67.565334 C 122.17021,67.536539 122.12456,67.433385 122.0763,67.336103 C 122.00907,67.200604 121.94668,67.117815 121.8096,66.982201 C 121.60869,66.783439 121.44546,66.690628 121.16313,66.614627 C 120.91432,66.547648 120.42352,66.548013 120.17225,66.615363 C 119.59893,66.769034 119.18442,67.152111 118.95876,67.736829 C 118.64245,68.556431 118.66039,70.100102 118.99545,70.894404 C 119.27122,71.54815 119.82482,71.923289 120.5921,71.976337 C 121.15168,72.015027 121.69582,71.870199 122.31015,71.519059 L 122.54769,71.383283 L 122.54769,70.945109 L 122.54769,70.506936 L 121.65276,70.506936 L 120.75783,70.506936 L 120.75783,69.56781 L 120.75783,68.628683 L 122.8239,68.628683 L 124.88998,68.628683 L 124.88998,70.560064 L 124.88998,72.491444 L 124.54195,72.722437 C 123.18187,73.625148 122.29525,73.913412 120.79097,73.941985 C 120.5236,73.947063 120.19546,73.942209 120.06177,73.931196 L 120.06177,73.931197 z"
     id="path3495" />
  <path
     style="opacity:1;fill:#c6001d;fill-opacity:1;fill-rule:nonzero;stroke:none;stroke-width:1;stroke-linecap:square;stroke-linejoin:miter;stroke-miterlimit:4;stroke-dasharray:none;stroke-dashoffset:0;stroke-opacity:1"
     d="M 128.0393,69.414098 L 128.0393,64.884195 L 130.96717,64.884195 L 133.89503,64.884195 L 133.89503,65.845418 L 133.89503,66.806641 L 132.06097,66.806641 L 130.22691,66.806641 L 130.22691,67.535845 L 130.22691,68.265049 L 131.92839,68.265049 L 133.62986,68.265049 L 133.62986,69.182078 L 133.62986,70.099107 L 131.92839,70.099107 L 130.22691,70.099107 L 130.22691,71.005088 L 130.22691,71.911068 L 132.11621,71.911068 L 134.00552,71.911068 L 134.00552,72.927534 L 134.00552,73.944 L 131.02241,73.944 L 128.0393,73.944 L 128.0393,69.414098 z"
     id="path3497" />
  <path
     id="path3499"
     d="M 137.05059,69.412534 L 137.05059,64.881396 L 139.4868,64.889863 C 141.64078,64.89735 141.95244,64.902701 142.17712,64.936053 C 142.96766,65.053405 143.36984,65.251738 143.72997,65.701846 C 143.98597,66.021808 144.14596,66.394736 144.22179,66.848247 C 144.28007,67.196736 144.25855,67.837475 144.17794,68.154236 C 144.06077,68.614645 143.76595,69.108274 143.44281,69.385111 C 143.17751,69.612388 142.84371,69.790949 142.51413,69.881888 C 142.41385,69.909558 142.3318,69.939847 142.3318,69.949197 C 142.3318,69.958547 142.34465,69.966197 142.36036,69.966197 C 142.37608,69.966197 142.5084,70.0251 142.65441,70.097093 C 142.88287,70.209742 142.93973,70.249064 143.06226,70.379173 C 143.20693,70.532803 143.45154,70.863796 143.59806,71.104197 C 143.6425,71.177117 143.95639,71.845904 144.2956,72.59039 L 144.91233,73.944 L 143.5198,73.938313 L 142.12727,73.932624 L 141.41525,72.44107 C 141.02364,71.620716 140.65949,70.876615 140.60602,70.787513 C 140.55256,70.698411 140.46713,70.582013 140.4162,70.528852 C 140.24178,70.346823 139.9521,70.243141 139.65805,70.257496 L 139.51442,70.264507 L 139.50877,72.10409 L 139.50312,73.943672 L 138.27685,73.943672 L 137.05059,73.943672 L 137.05059,69.412534 z M 141.09694,68.470035 C 141.38987,68.392198 141.50238,68.327901 141.61565,68.173592 C 141.92514,67.751989 141.81355,67.047136 141.40451,66.839857 C 141.1726,66.722344 141.0945,66.712829 140.27124,66.701811 L 139.50337,66.691534 L 139.50337,67.623464 L 139.50337,68.555397 L 140.17181,68.546819 C 140.83568,68.538301 140.84199,68.537777 141.09694,68.470034 L 141.09694,68.470035 z"
     style="opacity:1;fill:#c6001d;fill-opacity:1;fill-rule:nonzero;stroke:none;stroke-width:1;stroke-linecap:square;stroke-linejoin:miter;stroke-miterlimit:4;stroke-dasharray:none;stroke-dashoffset:0;stroke-opacity:1" />
  <path
     id="path3501"
     d="M 117.38535,61.893026 C 114.19313,61.661213 112.84124,61.155871 111.40578,59.657846 C 110.2987,58.502519 109.802,57.521056 109.41237,55.718939 C 109.13556,54.438639 109.13823,54.518108 109.13823,47.609465 L 109.13823,41.227954 L 112.06822,41.227954 L 114.99821,41.227954 L 115.01254,47.897677 L 115.02688,54.5674 L 115.14134,54.939196 C 115.49377,56.083758 116.21363,56.810202 117.29022,57.107743 C 117.73386,57.230355 118.82373,57.231502 119.27324,57.109832 C 120.37141,56.812581 121.06745,56.122472 121.42021,54.981177 L 121.53274,54.617081 L 121.5467,47.922517 L 121.56066,41.227954 L 124.49083,41.227954 L 127.42098,41.227954 L 127.42098,47.688489 C 127.42098,51.909513 127.4027,54.316258 127.36826,54.631459 C 127.097,57.112527 126.01429,59.137699 124.23439,60.493318 C 123.35039,61.166575 122.10592,61.62222 120.61463,61.818631 C 119.86466,61.917405 118.23735,61.954895 117.38535,61.893024 L 117.38535,61.893026 z"
     style="opacity:1;fill:#c6001d;fill-opacity:1;fill-rule:nonzero;stroke:none;stroke-width:1;stroke-linecap:square;stroke-linejoin:miter;stroke-miterlimit:4;stroke-dasharray:none;stroke-dashoffset:0;stroke-opacity:1" />
</svg>

<svg xmlns="http://www.w3.org/2000/svg" xmlns:xlink="http://www.w3.org/1999/xlink" width="150" height="82"><g fill="#ffef00"><g fill-rule="evenodd"><g stroke="#db001d"><path d="M41.335 38.716l-19-24.754s-.896-1.172-.896-2.895 1.792-4.55 5.377-4.55c.93 0 4.62.896 4.62.896l87.2 16.958v-5.867h.177l8.187 9.6-9.176 7.397-.464-.14-.042-4.818L53.52 23.02s-4.12-.853-4.12.926 7.64 14.77 7.64 14.77H41.335zM61.592 64.5l6.928 9.202h9.168L72.346 64.5H61.592z"/></g></g></g><g fill="#c6001d"><g fill-rule="evenodd"><path d="M7.98 61.957V41.555h5.374v20.437l-5.374-.035zm9.013.045v-20.44l5.966-.001 9.37 10.916V41.562h5.17v20.44h-5.17l-9.37-10.54v10.54h-5.966zm33.033 0v-20.44l5.966-.001 9.37 10.916V41.562h5.17v20.44h-5.17l-9.37-10.54v10.54h-5.966zm-9.078-8.02v-5.975h6.104v5.986l-6.104-.01zm33.632.001v-5.975h6.104v5.986l-6.104-.01z"/></g><path d="M94.595 62.577l-.437-.047c-1.81-.192-3.682-.907-5.172-1.978-.9-.64-1.902-1.645-2.52-2.504-1.088-1.51-1.763-3.226-2.015-5.125-.07-.52-.078-2.02-.016-2.53.17-1.387.528-2.577 1.146-3.795 1.29-2.55 3.578-4.524 6.28-5.426.76-.254 1.4-.4 2.266-.52.4-.055 2.1-.055 2.5 0 1.407.192 2.54.53 3.657 1.09 3.03 1.52 5.206 4.348 5.872 7.628.177.872.202 1.15.202 2.224 0 1.05-.025 1.34-.187 2.156-.762 3.84-3.572 7.03-7.28 8.268-.765.255-1.28.375-2.16.5-.32.045-1.87.088-2.136.058zm1.625-5.903c2.092-.332 3.8-1.88 4.315-3.93a4.77 4.77 0 0 0 .159-1.32c0-1.042-.256-1.95-.794-2.812a5.36 5.36 0 0 0-3.742-2.457 7.69 7.69 0 0 0-1.547 0c-.735.117-1.438.372-2.015.733-1.584.99-2.532 2.69-2.532 4.542 0 2.783 2.15 5.084 4.953 5.303.252.02.916-.012 1.203-.058z"/><path d="M134.55 62.5h5.982V46.484H145V41.53h-15v4.953h4.484l.065 16.015z" fill-rule="evenodd"/><text xml:space="preserve" x="53.906" y="74.563" writing-mode="lr-tb" font-size="10" font-weight="bold" font-family="Arial"><tspan x="53.906" y="74.563">®</tspan></text><path d="M85.57 69.413v-4.53h2.27l2.854.1c1.062.25 1.72 1.34 1.537 2.55-.1.72-.5 1.258-1.1 1.536-.063.03-.115.06-.115.068s.057.032.127.054c.75.233 1.232.772 1.4 1.562a3.91 3.91 0 0 1 .012 1.194c-.155.777-.597 1.416-1.17 1.687-.214.102-.427.154-.956.238l-.442.07-4.43.014v-4.53zm4.023 2.558c.3-.076.466-.213.574-.445.218-.468.07-1.05-.32-1.24-.218-.107-.36-.12-1.17-.122h-.746v1.86l.768-.01.9-.043zm-.144-3.582c.23-.076.366-.206.455-.434.065-.166.07-.573.01-.745a.67.67 0 0 0-.525-.459c-.118-.027-.293-.034-.804-.034h-.653v1.726l.702-.008.814-.045zm9.35 5.54c-1.42-.103-2.02-.328-2.66-.994-.492-.514-.713-.95-.887-1.752-.123-.57-.122-.534-.122-3.607V64.74h2.606l.013 5.933.05.165c.157.5.477.832.956.965a2.41 2.41 0 0 0 .882.001c.488-.132.798-.44.955-.947l.05-.162.012-5.955h2.607v2.873l-.023 3.088c-.12 1.104-.602 2.004-1.394 2.607-.393.3-.947.502-1.6.6-.334.044-1.057.06-1.436.033z"/><use xlink:href="#A"/><path d="M120.062 73.93c-.73-.06-1.317-.2-1.815-.46-1.182-.594-1.95-1.837-2.14-3.464a8.54 8.54 0 0 1 .001-1.5c.185-1.598.92-2.773 2.153-3.44.612-.332 1.436-.493 2.518-.492.912.001 1.667.102 2.135.287.683.27 1.232.798 1.565 1.503.095.202.293.745.276.758a88.15 88.15 0 0 1-1.235.233l-1.277.24c-.04.01-.054.001-.065-.04-.008-.03-.053-.132-.1-.23a1.18 1.18 0 0 0-.267-.354 1.28 1.28 0 0 0-.646-.368 2.45 2.45 0 0 0-.99.001c-.573.154-.988.537-1.213 1.12-.316.82-.298 2.363.037 3.158.276.654.83 1.03 1.597 1.082.56.04 1.104-.106 1.718-.457l.238-.136v-.876h-1.8V68.63h4.132v3.863l-.348.23c-1.36.903-2.247 1.2-3.75 1.22a9.63 9.63 0 0 1-.729-.011zm7.978-4.516v-4.53h5.856v1.922h-3.668v1.458h3.403V70.1h-3.403v1.812h3.78v2.033h-5.966v-4.53z"/><use xlink:href="#A" x="30.847"/><path d="M117.385 61.893c-3.192-.232-4.544-.737-5.98-2.235-1.107-1.155-1.604-2.137-1.993-3.94-.277-1.28-.274-1.2-.274-8.11v-6.382h5.86l.03 13.34.114.372c.352 1.145 1.072 1.87 2.15 2.17.444.123 1.534.124 1.983.002 1.098-.297 1.794-.987 2.147-2.13l.113-.364.028-13.39h5.86v6.46l-.053 6.943c-.27 2.48-1.354 4.506-3.134 5.862-.884.673-2.128 1.13-3.62 1.325-.75.1-2.377.136-3.23.074z"/></g><defs><path id="A" d="M106.203 69.413v-4.53l2.436.008 2.7.046c.79.117 1.193.316 1.553.766.256.32.416.693.492 1.146.058.348.037.99-.044 1.306-.117.46-.412.954-.735 1.23-.265.227-.6.406-.93.497-.1.028-.182.058-.182.067s.013.017.03.017.148.06.294.13c.228.113.285.152.408.282a5.4 5.4 0 0 1 .536.725 43.14 43.14 0 0 1 .698 1.486l.617 1.354-2.785-.01-.712-1.492-.81-1.654a1.78 1.78 0 0 0-.19-.259c-.174-.182-.464-.286-.758-.27l-.144.007-.01 3.68h-2.453v-4.53zm4.046-.942c.293-.078.405-.142.52-.296.31-.422.198-1.126-.21-1.334-.232-.118-.3-.127-1.133-.138l-.768-.01v1.864l.668-.01c.664-.01.67-.01.925-.077z"/></defs></svg>
